assets/icons/24px/outline/sprout-24px.svg

<svg width="24" height="24" viewBox="0 0 24 24" fill="none" xmlns="http://www.w3.org/2000/svg">
<path d="M11.9786 18.6218V12.9142" stroke="white" stroke-width="2" stroke-linecap="round"/>
<path d="M4.84412 21C4.84412 21 6.27102 19.0975 11.9786 19.0975C17.6862 19.0975 20.0643 21 20.0643 21" stroke="white" stroke-width="2" stroke-linecap="round"/>
<path d="M4.08524 3.18991C5.02896 2.24619 7.70657 3.39374 10.0659 5.75303C12.4251 8.11231 13.5727 10.7899 12.629 11.7336C11.6853 12.6774 9.00765 11.5298 6.64836 9.17052C4.28908 6.81123 3.14153 4.13362 4.08524 3.18991Z" stroke="white" stroke-width="2"/>
<path d="M12.0234 12.1213C13.2632 11.8562 14.9357 10.8334 16.473 9.2961C18.8322 6.93682 19.9798 4.25921 19.0361 3.3155C18.0924 2.37178 15.4148 3.51933 13.0555 5.87861C12.5946 6.33947 12.18 6.81247 11.8182 7.28233" stroke="white" stroke-width="2" stroke-linecap="round"/>
</svg>

<svg width="24" height="24" fill="none" xmlns="http://www.w3.org/2000/svg"><path d="M11.979 18.622v-5.708M4.844 21s1.427-1.902 7.135-1.902c5.707 0 8.085 1.902 8.085 1.902" stroke="#fff" stroke-width="2" stroke-linecap="round"/><path d="M4.085 3.19c.944-.944 3.622.204 5.98 2.563 2.36 2.36 3.508 5.037 2.564 5.98-.944.944-3.621-.203-5.98-2.562-2.36-2.36-3.507-5.037-2.564-5.981z" stroke="#fff" stroke-width="2"/><path d="M12.023 12.121c1.24-.265 2.913-1.288 4.45-2.825 2.36-2.36 3.507-5.037 2.563-5.98-.944-.944-3.621.203-5.98 2.563-.461.46-.876.933-1.238 1.403" stroke="#fff" stroke-width="2" stroke-linecap="round"/></svg>
